!!!SOCIAL_FUNCTION:	songs of ceremonial dances
!!!PDT:	1958
!!!OTL: No_3_Song_of_the_Duck_Dance_(a).krn
!!!REG: Northern California
!!!LANG: Non-Tone
!!!LING_GROUP: Penutian
**kern
*staff1
=1-
*clefF4
*k[f#c#g#d#a#]
*M2/4
8.F#\L
16F#\Jk
8.F#\L
32D#\Jkk
32r
=2
8.G#\L
16F#\Jk
8.F#\L
16F#\Jk
=3
*M3/4
8F#\L
(16D#\L
16C#\JJ)
8.C#/L
16C#/Jk
8.BB/L
32BB/Jkk
32r
=4
*M2/4
8G#\L
16G#\L
16G#\JJ
8.F#\L
16F#\Jk
=5
*M3/4
12F#\L
12G#\
12F#\J
8.C#/L
16C#/Jk
8.BB/L
32BB/Jkk
32r
=6
8.G#\L
16G#\Jk
8.F#\L
16F#\Jk
8F#\
(32F#\LLL
32D#\JJJ)
16r
=7!|:
*M2/4
4G#\
8.G#\L
16F#\Jk
=8
*M3/4
8.G#\L
16G#\Jk
8.F#\L
16F#\Jk
8F#\
(32F#\LLL
32D#\JJJ)
16r
=9
*M2/4
8.G#\L
16G#\Jk
8F#\
(32F#\LLL
32D#\JJJ)
16r
=10
*M3/4
8.G#\L
16G#\Jk
8.F#\L
16F#\Jk
8F#\
(32F#\LLL
32D#\JJJ)
16r
==:|!
*-
